!!!OTL: Sichelein - Rauschen.
!!!ARE: Europa, Mitteleuropa, Deutschland
!!!SCT: A0180A
!!!TXL: @@GMH
!!!YEM: Copyright 1995, estate of Helmut Schaffrath.
**kern	**text
!! Mixed meters:  4/2; 6/2
*M6/2	*
*met(c|)	*
*clefC3	*
*k[]	*
*G:ion	*
!LO:TX:a:t=jon. tr. (G dur)	!
{1G	Laß
=1	=1
*M4/2	*
2G	rauſchen,
2B	.
2A	ſi_che-
2G	-le
=2	=2
*M6/2	*
1d	rau-
1d	-ſchen,
2r}	.
{2G	vnd
=3	=3
2d	klinge
2d	.
2c	wol
*lig	*
2B	durch
4A	.
4G	.
*Xlig	*
2d	das
=4	=4
*M4/2	*
0A	korn,
=5	=5
1r}	.
{1d	weiß
=6	=6
2c/	ich
2B	ein
2A	meid-
2G	-lein
=7	=7
*M6/2	*
*lig	*
2c/	traw-
4B	.
4A	.
2d}	-ren,
*Xlig	*
{2B	hat
2A	j-
2B	-ren
=8	=8
2.G	bu-
4A	.
2B	.
2c	-len
1A	ver-
=9	=9
0G/ll}	-lorn.
==	==
!!!GTL: Liebeslieder
!!!AGN: Romanze, Ballade, Lied
!! Forster V 1556 No. 35.
!!!ONB: ESAC (Essen Associative Code) Database: ALTDEU
!!!AMT: irregular
!!!AIN: vox
!!!EED: Helmut Schaffrath
!!!EEV: 1.0
!!!RDF**kern: l = terminal long
!!!AMD: Ionian
!!!URL-scan: https://rosdok.uni-rostock.de/mcrviewer/recordIdentifier/rosdok_ppn738218359/iview2/phys_0341.iview2?x=-495.6391625615763&y=2350.618025245145&scale=0.4629418472063854&rotation=0&layout=singlePageLayout&logicalDiv=log_0009
!!!ENC: Anna Maria Matuszewska
!!!EEV: 2024/07/03
*-	*-
